Software_Engine/apps/static/assets/img/logo.svg

<?xml version="1.0" encoding="UTF-8" standalone="no"?>
<!-- Generator: Gravit.io -->

<svg
   style="isolation:isolate"
   viewBox="0 0 140.02109 33.362999"
   width="140.02109"
   height="33.362999"
   version="1.1"
   id="svg47"
   sodipodi:docname="logo.svg"
   inkscape:version="1.2 (dc2aedaf03, 2022-05-15)"
   xmlns:inkscape="http://www.inkscape.org/namespaces/inkscape"
   xmlns:sodipodi="http://sodipodi.sourceforge.net/DTD/sodipodi-0.dtd"
   xmlns="http://www.w3.org/2000/svg"
   xmlns:svg="http://www.w3.org/2000/svg">
  <sodipodi:namedview
     id="namedview49"
     pagecolor="#505050"
     bordercolor="#ffffff"
     borderopacity="1"
     inkscape:showpageshadow="0"
     inkscape:pageopacity="0"
     inkscape:pagecheckerboard="1"
     inkscape:deskcolor="#505050"
     showgrid="false"
     inkscape:zoom="8"
     inkscape:cx="58.625"
     inkscape:cy="16.3125"
     inkscape:window-width="1920"
     inkscape:window-height="991"
     inkscape:window-x="-9"
     inkscape:window-y="-9"
     inkscape:window-maximized="1"
     inkscape:current-layer="svg47" />
  <defs
     id="defs33">
    <inkscape:perspective
       sodipodi:type="inkscape:persp3d"
       inkscape:vp_x="0 : 15.862999 : 1"
       inkscape:vp_y="0 : 1000 : 0"
       inkscape:vp_z="108 : 15.862999 : 1"
       inkscape:persp3d-origin="54.000001 : 10.029666 : 1"
       id="perspective373" />
    <clipPath
       id="_clipPath_Oym1fQWp4902RANcb93UAmaY2a1Es4ds">
      <rect
         width="108"
         height="35"
         id="rect30"
         x="0"
         y="0" />
    </clipPath>
  </defs>
  <g
     clip-path="url(#_clipPath_Oym1fQWp4902RANcb93UAmaY2a1Es4ds)"
     id="g45"
     transform="translate(-1,-0.879)">
    <g
       id="g43">
      <path
         d="M 29.894,9.22 15.447,0.879 1,9.22 v 16.682 l 4.816,2.78 V 12 L 15.447,6.44 25.078,12 v 16.682 l 4.816,-2.78 z"
         fill="#ffffff"
         id="path37" />
      <path
         d="M 20.262,14.781 15.447,12 10.631,14.781 v 5.56 l 4.816,2.78 4.815,-2.78 z"
         fill="#ffffff"
         id="path39" />
      <path
         d="m 20.262,25.902 -4.815,2.78 -4.816,-2.78 v 5.56 l 4.816,2.78 4.815,-2.78 z"
         fill="#ffffff"
         id="path41" />
    </g>
  </g>
  <text
     xml:space="preserve"
     style="fill:#000000"
     x="38.951534"
     y="16.887058"
     id="text451"><tspan
       sodipodi:role="line"
       id="tspan449"
       x="38.951534"
       y="16.887058" /></text>
  <text
     xml:space="preserve"
     style="font-style:normal;font-variant:normal;font-weight:normal;font-stretch:normal;font-size:16px;font-family:sans-serif;-inkscape-font-specification:'sans-serif, Normal';font-variant-ligatures:normal;font-variant-caps:normal;font-variant-numeric:normal;font-variant-east-asian:normal;fill:#ffffff;fill-opacity:1"
     x="31.880466"
     y="22.543911"
     id="text455"><tspan
       sodipodi:role="line"
       id="tspan453"
       x="31.880466"
       y="22.543911">SmartHomies</tspan></text>
  <rect
     style="fill:#ffffff;fill-opacity:1;stroke-width:1.47358"
     id="rect1253"
     width="8.3093262"
     height="7.6932869"
     x="7.4734664"
     y="13.929428"
     transform="matrix(0.86852627,-0.49564314,0.51608778,0.8565357,0,0)" />
  <rect
     style="isolation:isolate;fill:#ffffff;fill-opacity:1;stroke-width:1.47358"
     id="rect1253-8"
     width="8.3093262"
     height="7.6932869"
     x="-17.281599"
     y="-0.36954635"
     transform="matrix(-0.86852627,-0.49564314,-0.51608778,0.8565357,0,0)" />
  <rect
     style="isolation:isolate;fill:#ffffff;fill-opacity:1;stroke-width:1.47358"
     id="rect1253-8-1"
     width="8.3093262"
     height="7.6932869"
     x="-21.002295"
     y="-3.2707119"
     transform="matrix(-0.86852627,-0.49564314,-0.51608778,0.8565357,0,0)" />
</svg>

<?xml version="1.0" standalone="no"?><!-- Generator: Gravit.io --><svg xmlns="http://www.w3.org/2000/svg" xmlns:xlink="http://www.w3.org/1999/xlink" style="isolation:isolate" viewBox="0 0 108 35" width="108" height="35"><defs><clipPath id="_clipPath_Oym1fQWp4902RANcb93UAmaY2a1Es4ds"><rect width="108" height="35"/></clipPath></defs><g clip-path="url(#_clipPath_Oym1fQWp4902RANcb93UAmaY2a1Es4ds)"><path d=" M 46.949 12.282 L 51.412 23.641 L 49.777 23.641 L 49.777 23.641 Q 49.503 23.641 49.326 23.504 L 49.326 23.504 L 49.326 23.504 Q 49.149 23.366 49.07 23.162 L 49.07 23.162 L 48.222 20.845 L 43.516 20.845 L 42.668 23.162 L 42.668 23.162 Q 42.605 23.343 42.42 23.492 L 42.42 23.492 L 42.42 23.492 Q 42.236 23.641 41.969 23.641 L 41.969 23.641 L 40.327 23.641 L 44.789 12.282 L 46.949 12.282 L 46.949 12.282 Z  M 45.441 15.589 L 44.058 19.352 L 47.68 19.352 L 46.297 15.573 L 46.297 15.573 Q 46.203 15.322 46.089 14.98 L 46.089 14.98 L 46.089 14.98 Q 45.975 14.638 45.865 14.238 L 45.865 14.238 L 45.865 14.238 Q 45.755 14.638 45.649 14.984 L 45.649 14.984 L 45.649 14.984 Q 45.543 15.33 45.441 15.589 L 45.441 15.589 L 45.441 15.589 Z  M 55.992 23.767 L 55.992 23.767 L 55.992 23.767 Q 54.948 23.767 54.382 23.174 L 54.382 23.174 L 54.382 23.174 Q 53.816 22.581 53.816 21.536 L 53.816 21.536 L 53.816 17.034 L 52.999 17.034 L 52.999 17.034 Q 52.842 17.034 52.728 16.932 L 52.728 16.932 L 52.728 16.932 Q 52.614 16.83 52.614 16.626 L 52.614 16.626 L 52.614 15.856 L 53.911 15.644 L 54.319 13.444 L 54.319 13.444 Q 54.351 13.287 54.464 13.201 L 54.464 13.201 L 54.464 13.201 Q 54.578 13.114 54.751 13.114 L 54.751 13.114 L 55.757 13.114 L 55.757 15.652 L 57.878 15.652 L 57.878 17.034 L 55.757 17.034 L 55.757 21.402 L 55.757 21.402 Q 55.757 21.779 55.945 21.992 L 55.945 21.992 L 55.945 21.992 Q 56.134 22.204 56.448 22.204 L 56.448 22.204 L 56.448 22.204 Q 56.629 22.204 56.75 22.16 L 56.75 22.16 L 56.75 22.16 Q 56.872 22.117 56.963 22.07 L 56.963 22.07 L 56.963 22.07 Q 57.053 22.023 57.124 21.98 L 57.124 21.98 L 57.124 21.98 Q 57.194 21.937 57.265 21.937 L 57.265 21.937 L 57.265 21.937 Q 57.351 21.937 57.406 21.98 L 57.406 21.98 L 57.406 21.98 Q 57.461 22.023 57.524 22.109 L 57.524 22.109 L 58.106 23.052 L 58.106 23.052 Q 57.681 23.406 57.132 23.586 L 57.132 23.586 L 57.132 23.586 Q 56.582 23.767 55.992 23.767 Z  M 60.424 11.967 L 62.364 11.967 L 62.364 23.641 L 60.424 23.641 L 60.424 11.967 L 60.424 11.967 Z  M 71.745 18.551 L 71.745 23.641 L 70.873 23.641 L 70.873 23.641 Q 70.598 23.641 70.441 23.559 L 70.441 23.559 L 70.441 23.559 Q 70.284 23.476 70.206 23.225 L 70.206 23.225 L 70.033 22.651 L 70.033 22.651 Q 69.726 22.926 69.432 23.135 L 69.432 23.135 L 69.432 23.135 Q 69.137 23.343 68.823 23.484 L 68.823 23.484 L 68.823 23.484 Q 68.509 23.626 68.155 23.696 L 68.155 23.696 L 68.155 23.696 Q 67.802 23.767 67.37 23.767 L 67.37 23.767 L 67.37 23.767 Q 66.859 23.767 66.427 23.629 L 66.427 23.629 L 66.427 23.629 Q 65.995 23.491 65.684 23.215 L 65.684 23.215 L 65.684 23.215 Q 65.374 22.939 65.201 22.529 L 65.201 22.529 L 65.201 22.529 Q 65.028 22.12 65.028 21.576 L 65.028 21.576 L 65.028 21.576 Q 65.028 21.119 65.268 20.673 L 65.268 20.673 L 65.268 20.673 Q 65.508 20.228 66.065 19.869 L 66.065 19.869 L 66.065 19.869 Q 66.623 19.511 67.55 19.274 L 67.55 19.274 L 67.55 19.274 Q 68.477 19.038 69.852 19.038 L 69.852 19.038 L 69.852 18.563 L 69.852 18.563 Q 69.852 17.747 69.51 17.356 L 69.51 17.356 L 69.51 17.356 Q 69.169 16.964 68.517 16.964 L 68.517 16.964 L 68.517 16.964 Q 68.045 16.964 67.731 17.074 L 67.731 17.074 L 67.731 17.074 Q 67.417 17.184 67.185 17.321 L 67.185 17.321 L 67.185 17.321 Q 66.953 17.459 66.757 17.569 L 66.757 17.569 L 66.757 17.569 Q 66.56 17.679 66.325 17.679 L 66.325 17.679 L 66.325 17.679 Q 66.128 17.679 65.987 17.577 L 65.987 17.577 L 65.987 17.577 Q 65.845 17.474 65.759 17.325 L 65.759 17.325 L 65.406 16.704 L 65.406 16.704 Q 66.796 15.432 68.76 15.432 L 68.76 15.432 L 68.76 15.432 Q 69.467 15.432 70.021 15.664 L 70.021 15.664 L 70.021 15.664 Q 70.575 15.895 70.96 16.308 L 70.96 16.308 L 70.96 16.308 Q 71.345 16.72 71.545 17.294 L 71.545 17.294 L 71.545 17.294 Q 71.745 17.867 71.745 18.551 L 71.745 18.551 L 71.745 18.551 Z  M 67.974 22.431 L 67.974 22.431 L 67.974 22.431 Q 68.273 22.431 68.524 22.377 L 68.524 22.377 L 68.524 22.377 Q 68.776 22.322 69 22.212 L 69 22.212 L 69 22.212 Q 69.224 22.102 69.432 21.941 L 69.432 21.941 L 69.432 21.941 Q 69.64 21.781 69.852 21.561 L 69.852 21.561 L 69.852 20.224 L 69.852 20.224 Q 69.004 20.224 68.434 20.331 L 68.434 20.331 L 68.434 20.331 Q 67.864 20.438 67.519 20.604 L 67.519 20.604 L 67.519 20.604 Q 67.173 20.77 67.028 20.991 L 67.028 20.991 L 67.028 20.991 Q 66.882 21.213 66.882 21.474 L 66.882 21.474 L 66.882 21.474 Q 66.882 21.988 67.185 22.21 L 67.185 22.21 L 67.185 22.21 Q 67.487 22.431 67.974 22.431 Z  M 76.468 23.641 L 74.527 23.641 L 74.527 15.581 L 75.713 15.581 L 75.713 15.581 Q 76.09 15.581 76.208 15.935 L 76.208 15.935 L 76.342 16.571 L 76.342 16.571 Q 76.585 16.32 76.856 16.115 L 76.856 16.115 L 76.856 16.115 Q 77.127 15.911 77.43 15.762 L 77.43 15.762 L 77.43 15.762 Q 77.732 15.613 78.078 15.534 L 78.078 15.534 L 78.078 15.534 Q 78.424 15.455 78.832 15.455 L 78.832 15.455 L 78.832 15.455 Q 79.492 15.455 80.003 15.679 L 80.003 15.679 L 80.003 15.679 Q 80.513 15.903 80.855 16.308 L 80.855 16.308 L 80.855 16.308 Q 81.197 16.712 81.374 17.274 L 81.374 17.274 L 81.374 17.274 Q 81.55 17.836 81.55 18.511 L 81.55 18.511 L 81.55 23.641 L 79.61 23.641 L 79.61 18.511 L 79.61 18.511 Q 79.61 17.773 79.268 17.368 L 79.268 17.368 L 79.268 17.368 Q 78.926 16.964 78.243 16.964 L 78.243 16.964 L 78.243 16.964 Q 77.74 16.964 77.3 17.192 L 77.3 17.192 L 77.3 17.192 Q 76.86 17.419 76.468 17.812 L 76.468 17.812 L 76.468 23.641 L 76.468 23.641 Z  M 86.98 23.767 L 86.98 23.767 L 86.98 23.767 Q 85.935 23.767 85.369 23.174 L 85.369 23.174 L 85.369 23.174 Q 84.804 22.581 84.804 21.536 L 84.804 21.536 L 84.804 17.034 L 83.987 17.034 L 83.987 17.034 Q 83.829 17.034 83.716 16.932 L 83.716 16.932 L 83.716 16.932 Q 83.602 16.83 83.602 16.626 L 83.602 16.626 L 83.602 15.856 L 84.898 15.644 L 85.306 13.444 L 85.306 13.444 Q 85.338 13.287 85.452 13.201 L 85.452 13.201 L 85.452 13.201 Q 85.566 13.114 85.738 13.114 L 85.738 13.114 L 86.744 13.114 L 86.744 15.652 L 88.865 15.652 L 88.865 17.034 L 86.744 17.034 L 86.744 21.402 L 86.744 21.402 Q 86.744 21.779 86.933 21.992 L 86.933 21.992 L 86.933 21.992 Q 87.121 22.204 87.435 22.204 L 87.435 22.204 L 87.435 22.204 Q 87.616 22.204 87.738 22.16 L 87.738 22.16 L 87.738 22.16 Q 87.86 22.117 87.95 22.07 L 87.95 22.07 L 87.95 22.07 Q 88.04 22.023 88.111 21.98 L 88.111 21.98 L 88.111 21.98 Q 88.182 21.937 88.252 21.937 L 88.252 21.937 L 88.252 21.937 Q 88.339 21.937 88.394 21.98 L 88.394 21.98 L 88.394 21.98 Q 88.449 22.023 88.512 22.109 L 88.512 22.109 L 89.093 23.052 L 89.093 23.052 Q 88.669 23.406 88.119 23.586 L 88.119 23.586 L 88.119 23.586 Q 87.569 23.767 86.98 23.767 Z  M 91.411 15.581 L 93.352 15.581 L 93.352 23.641 L 91.411 23.641 L 91.411 15.581 L 91.411 15.581 Z  M 93.642 13.232 L 93.642 13.232 L 93.642 13.232 Q 93.642 13.484 93.54 13.704 L 93.54 13.704 L 93.54 13.704 Q 93.438 13.923 93.269 14.088 L 93.269 14.088 L 93.269 14.088 Q 93.1 14.253 92.873 14.352 L 92.873 14.352 L 92.873 14.352 Q 92.645 14.45 92.385 14.45 L 92.385 14.45 L 92.385 14.45 Q 92.134 14.45 91.91 14.352 L 91.91 14.352 L 91.91 14.352 Q 91.686 14.253 91.521 14.088 L 91.521 14.088 L 91.521 14.088 Q 91.356 13.923 91.258 13.704 L 91.258 13.704 L 91.258 13.704 Q 91.16 13.484 91.16 13.232 L 91.16 13.232 L 91.16 13.232 Q 91.16 12.973 91.258 12.745 L 91.258 12.745 L 91.258 12.745 Q 91.356 12.517 91.521 12.352 L 91.521 12.352 L 91.521 12.352 Q 91.686 12.187 91.91 12.089 L 91.91 12.089 L 91.91 12.089 Q 92.134 11.991 92.385 11.991 L 92.385 11.991 L 92.385 11.991 Q 92.645 11.991 92.873 12.089 L 92.873 12.089 L 92.873 12.089 Q 93.1 12.187 93.269 12.352 L 93.269 12.352 L 93.269 12.352 Q 93.438 12.517 93.54 12.745 L 93.54 12.745 L 93.54 12.745 Q 93.642 12.973 93.642 13.232 Z  M 101.641 16.453 L 101.201 17.152 L 101.201 17.152 Q 101.122 17.278 101.036 17.329 L 101.036 17.329 L 101.036 17.329 Q 100.949 17.38 100.816 17.38 L 100.816 17.38 L 100.816 17.38 Q 100.674 17.38 100.513 17.302 L 100.513 17.302 L 100.513 17.302 Q 100.352 17.223 100.14 17.125 L 100.14 17.125 L 100.14 17.125 Q 99.928 17.027 99.657 16.948 L 99.657 16.948 L 99.657 16.948 Q 99.386 16.869 99.017 16.869 L 99.017 16.869 L 99.017 16.869 Q 98.443 16.869 98.113 17.113 L 98.113 17.113 L 98.113 17.113 Q 97.783 17.357 97.783 17.749 L 97.783 17.749 L 97.783 17.749 Q 97.783 18.009 97.952 18.185 L 97.952 18.185 L 97.952 18.185 Q 98.121 18.362 98.4 18.496 L 98.4 18.496 L 98.4 18.496 Q 98.679 18.629 99.032 18.735 L 99.032 18.735 L 99.032 18.735 Q 99.386 18.841 99.755 18.967 L 99.755 18.967 L 99.755 18.967 Q 100.124 19.093 100.478 19.254 L 100.478 19.254 L 100.478 19.254 Q 100.831 19.415 101.11 19.662 L 101.11 19.662 L 101.11 19.662 Q 101.389 19.91 101.558 20.255 L 101.558 20.255 L 101.558 20.255 Q 101.727 20.601 101.727 21.088 L 101.727 21.088 L 101.727 21.088 Q 101.727 21.669 101.515 22.16 L 101.515 22.16 L 101.515 22.16 Q 101.303 22.651 100.894 23.009 L 100.894 23.009 L 100.894 23.009 Q 100.486 23.366 99.885 23.567 L 99.885 23.567 L 99.885 23.567 Q 99.284 23.767 98.506 23.767 L 98.506 23.767 L 98.506 23.767 Q 98.09 23.767 97.693 23.692 L 97.693 23.692 L 97.693 23.692 Q 97.296 23.618 96.931 23.484 L 96.931 23.484 L 96.931 23.484 Q 96.566 23.351 96.255 23.17 L 96.255 23.17 L 96.255 23.17 Q 95.945 22.989 95.709 22.777 L 95.709 22.777 L 96.157 22.039 L 96.157 22.039 Q 96.244 21.905 96.361 21.834 L 96.361 21.834 L 96.361 21.834 Q 96.479 21.764 96.66 21.764 L 96.66 21.764 L 96.66 21.764 Q 96.841 21.764 97.002 21.866 L 97.002 21.866 L 97.002 21.866 Q 97.163 21.968 97.375 22.086 L 97.375 22.086 L 97.375 22.086 Q 97.587 22.204 97.874 22.306 L 97.874 22.306 L 97.874 22.306 Q 98.16 22.408 98.6 22.408 L 98.6 22.408 L 98.6 22.408 Q 98.946 22.408 99.193 22.325 L 99.193 22.325 L 99.193 22.325 Q 99.441 22.243 99.602 22.109 L 99.602 22.109 L 99.602 22.109 Q 99.763 21.976 99.838 21.799 L 99.838 21.799 L 99.838 21.799 Q 99.912 21.622 99.912 21.434 L 99.912 21.434 L 99.912 21.434 Q 99.912 21.151 99.743 20.97 L 99.743 20.97 L 99.743 20.97 Q 99.574 20.79 99.296 20.656 L 99.296 20.656 L 99.296 20.656 Q 99.017 20.522 98.659 20.416 L 98.659 20.416 L 98.659 20.416 Q 98.302 20.31 97.929 20.185 L 97.929 20.185 L 97.929 20.185 Q 97.556 20.059 97.198 19.89 L 97.198 19.89 L 97.198 19.89 Q 96.841 19.721 96.562 19.462 L 96.562 19.462 L 96.562 19.462 Q 96.283 19.203 96.114 18.826 L 96.114 18.826 L 96.114 18.826 Q 95.945 18.449 95.945 17.914 L 95.945 17.914 L 95.945 17.914 Q 95.945 17.419 96.141 16.972 L 96.141 16.972 L 96.141 16.972 Q 96.338 16.524 96.719 16.19 L 96.719 16.19 L 96.719 16.19 Q 97.1 15.856 97.669 15.656 L 97.669 15.656 L 97.669 15.656 Q 98.239 15.455 98.985 15.455 L 98.985 15.455 L 98.985 15.455 Q 99.818 15.455 100.501 15.73 L 100.501 15.73 L 100.501 15.73 Q 101.185 16.005 101.641 16.453 L 101.641 16.453 L 101.641 16.453 Z " fill-rule="evenodd" fill="rgb(255,255,255)"/><g><path d=" M 29.894 9.22 L 15.447 0.879 L 1 9.22 L 1 25.902 L 5.816 28.682 L 5.816 12 L 15.447 6.44 L 25.078 12 L 25.078 28.682 L 29.894 25.902 L 29.894 9.22 Z " fill="rgb(255,255,255)"/><path d=" M 20.262 14.781 L 15.447 12 L 10.631 14.781 L 10.631 20.341 L 15.447 23.121 L 20.262 20.341 L 20.262 14.781 Z " fill="rgb(255,255,255)"/><path d=" M 20.262 25.902 L 15.447 28.682 L 10.631 25.902 L 10.631 31.462 L 15.447 34.242 L 20.262 31.462 L 20.262 25.902 Z " fill="rgb(255,255,255)"/></g></g></svg>
